;FLAVOR:Marlin
;TIME:4892
;Filament used: 2.80838m
;Layer height: 0.01
;MINX:153.002
;MINY:132.126
;MINZ:0.3
;MAXX:221.35
;MAXY:200.514
;MAXZ:7.97
;Generated with Cura_SteamEngine 4.6.2
M140 S60
M105
M190 S60
M104 S230
M105
M109 S230
M82 ;absolute extrusion mode
M107 ;Start with the fan off
G21 ;Set units to millimeters
G91 ;Change to relative positioning mode for retract filament and nozzle lifting
G1 F200 E-3 ;Retract 3mm filament for a clean start
G92 E0 ;Zero the extruded length
G1 F1000 Z5 ;Lift the nozzle 5mm before homing axes
G90 ;Absolute positioning
M82 ;Set extruder to absolute mode too
G28 X0 Y0 ;First move X/Y to min endstops
G28 Z0 ;Then move Z to min endstops
G1 F1000 Z15 ;After homing lift the nozzle 15mm before start printing

G92 E0
G92 E0
G1 F6000 E-12
;LAYER_COUNT:94
;LAYER:0
M106 S255
M205 X10 Y10
G1 F600 Z0.375
G0 F12000 X160.614 Y144.787 Z0.375
M205 X8 Y8
;TYPE:SKIRT
G1 F600 Z0.3
G1 F6000 E0
G1 F2400 X162.966 Y142.174 E0.24555
G1 X165.579 Y139.813 E0.49153
G1 X168.421 Y137.733 E0.73752
G1 X171.461 Y135.959 E0.98336
G1 X174.664 Y134.505 E1.22905
G1 X178.007 Y133.389 E1.47521
G1 X181.441 Y132.621 E1.72099
G1 X184.938 Y132.212 E1.96691
G1 X187.014 Y132.126 E2.11203
G1 X188.814 Y132.163 E2.23778
G1 X191.991 Y132.478 E2.46077
G1 X195.419 Y133.15 E2.70476
G1 X198.784 Y134.172 E2.95039
G1 X202.03 Y135.539 E3.1964
G1 X205.116 Y137.229 E3.44215
G1 X208.013 Y139.23 E3.68807
G1 X210.687 Y141.517 E3.93383
G1 X213.115 Y144.07 E4.17992
G1 X215.266 Y146.854 E4.42565
G1 X217.119 Y149.847 E4.67152
G1 X218.654 Y153.014 E4.91733
G1 X219.857 Y156.325 E5.16339
G1 X220.711 Y159.736 E5.40899
G1 X221.212 Y163.22 E5.65483
G1 X221.35 Y166.74 E5.90088
G1 X221.129 Y170.248 E6.14639
G1 X220.546 Y173.724 E6.39257
G1 X219.608 Y177.116 E6.63838
G1 X218.326 Y180.395 E6.88428
G1 X216.715 Y183.524 E7.1301
G1 X214.787 Y186.473 E7.37619
G1 X212.572 Y189.204 E7.62179
G1 X210.084 Y191.696 E7.86775
G1 X207.354 Y193.919 E8.11365
G1 X204.411 Y195.848 E8.35943
G1 X201.284 Y197.464 E8.60528
G1 X198.005 Y198.751 E8.85131
G1 X194.618 Y199.694 E9.09688
G1 X191.144 Y200.284 E9.343
G1 X187.633 Y200.514 E9.58876
G1 X184.117 Y200.382 E9.83451
G1 X180.628 Y199.888 E10.08063
G1 X177.213 Y199.037 E10.32645
G1 X173.903 Y197.841 E10.57227
G1 X170.731 Y196.309 E10.81831
G1 X167.737 Y194.461 E11.06406
G1 X164.947 Y192.314 E11.30995
G1 X162.393 Y189.894 E11.5557
G1 X160.102 Y187.221 E11.80159
G1 X158.097 Y184.327 E12.0475
G1 X156.4 Y181.243 E12.29336
G1 X155.029 Y178.002 E12.53916
G1 X154.001 Y174.635 E12.78505
G1 X153.322 Y171.181 E13.03091
G1 X153.002 Y167.677 E13.27667
G1 X153.042 Y164.162 E13.5222
G1 X153.447 Y160.657 E13.76864
G1 X154.208 Y157.224 E14.01424
G1 X155.319 Y153.884 E14.26009
G1 X156.767 Y150.676 E14.50593
G1 X158.537 Y147.633 E14.75181
G1 X160.614 Y144.787 E14.9979
M205 X10 Y10
G0 F12000 X161.064 Y145.12
M205 X8 Y8
G1 F2400 X163.38 Y142.551 E15.23949
G1 X165.952 Y140.231 E15.48142
G1 X168.749 Y138.187 E15.72338
G1 X171.74 Y136.444 E15.96518
G1 X174.893 Y135.016 E16.20694
G1 X178.18 Y133.921 E16.44893
G1 X181.559 Y133.169 E16.69071
G1 X184.999 Y132.768 E16.93261
G1 X187.034 Y132.685 E17.07487
G1 X188.8 Y132.723 E17.19824
G1 X191.933 Y133.035 E17.41815
G1 X195.309 Y133.699 E17.65847
G1 X198.618 Y134.707 E17.90008
G1 X201.809 Y136.053 E18.14197
G1 X204.844 Y137.718 E18.38376
G1 X207.691 Y139.689 E18.62562
G1 X210.321 Y141.94 E18.86741
G1 X212.707 Y144.454 E19.1095
G1 X214.82 Y147.194 E19.35117
G1 X216.641 Y150.138 E19.59296
G1 X218.149 Y153.255 E19.83481
G1 X219.329 Y156.513 E20.07684
G1 X220.167 Y159.868 E20.31837
G1 X220.657 Y163.296 E20.56024
G1 X220.79 Y166.758 E20.80222
G1 X220.57 Y170.209 E21.04375
G1 X219.994 Y173.628 E21.28592
G1 X219.069 Y176.964 E21.52772
G1 X217.806 Y180.188 E21.76957
G1 X216.218 Y183.264 E22.01135
G1 X214.321 Y186.164 E22.2534
G1 X212.139 Y188.849 E22.49505
G1 X209.691 Y191.298 E22.73691
G1 X207.003 Y193.482 E22.97881
G1 X204.107 Y195.377 E23.22055
G1 X201.03 Y196.965 E23.4624
G1 X197.803 Y198.229 E23.70446
G1 X194.471 Y199.154 E23.94599
G1 X191.054 Y199.731 E24.18804
G1 X187.6 Y199.955 E24.42979
G1 X184.142 Y199.823 E24.6715
G1 X180.71 Y199.334 E24.91363
G1 X177.352 Y198.494 E25.1554
G1 X174.096 Y197.316 E25.39725
G1 X170.978 Y195.806 E25.63922
G1 X168.034 Y193.986 E25.88097
G1 X165.291 Y191.873 E26.12281
G1 X162.781 Y189.49 E26.36455
G1 X160.53 Y186.86 E26.60635
G1 X158.559 Y184.011 E26.84832
G1 X156.893 Y180.976 E27.09014
G1 X155.547 Y177.787 E27.33191
G1 X154.537 Y174.475 E27.57375
G1 X153.872 Y171.077 E27.81559
G1 X153.56 Y167.63 E28.05734
G1 X153.602 Y164.171 E28.29895
G1 X154.003 Y160.725 E28.54127
G1 X154.754 Y157.349 E28.78283
G1 X155.849 Y154.064 E29.02469
G1 X157.276 Y150.91 E29.26648
G1 X159.019 Y147.918 E29.50834
G1 X161.064 Y145.12 E29.7504
M205 X10 Y10
G0 F12000 X161.515 Y145.453
M205 X8 Y8
G1 F2400 X163.794 Y142.928 E29.98798
G1 X166.325 Y140.649 E30.22586
G1 X169.077 Y138.641 E30.46381
G1 X172.019 Y136.929 E30.70155
G1 X175.121 Y135.527 E30.93932
G1 X178.354 Y134.453 E31.17727
G1 X181.678 Y133.716 E31.41507
G1 X185.061 Y133.325 E31.65294
G1 X187.054 Y133.245 E31.79225
G1 X188.786 Y133.283 E31.91326
G1 X191.876 Y133.592 E32.13016
G1 X195.198 Y134.248 E32.36667
G1 X198.452 Y135.242 E32.60431
G1 X201.588 Y136.568 E32.84213
G1 X204.572 Y138.208 E33.07995
G1 X207.37 Y140.147 E33.31772
G1 X209.954 Y142.364 E33.55553
G1 X212.299 Y144.837 E33.79357
G1 X214.375 Y147.533 E34.03123
G1 X216.163 Y150.43 E34.26901
G1 X217.643 Y153.496 E34.50681
G1 X218.802 Y156.701 E34.74485
G1 X219.623 Y160.001 E34.98237
G1 X220.102 Y163.372 E35.22019
G1 X220.23 Y166.776 E35.45811
G1 X220.012 Y170.17 E35.69566
G1 X219.442 Y173.531 E35.93376
G1 X218.53 Y176.811 E36.17155
G1 X217.285 Y179.981 E36.40943
G1 X215.722 Y183.004 E36.64713
G1 X213.854 Y185.855 E36.8852
G1 X211.707 Y188.493 E37.12276
G1 X209.297 Y190.9 E37.36067
G1 X206.652 Y193.046 E37.59857
G1 X203.803 Y194.907 E37.83625
G1 X200.776 Y196.466 E38.07407
G1 X197.602 Y197.706 E38.31208
G1 X194.324 Y198.613 E38.54964
G1 X190.963 Y199.179 E38.7877
G1 X187.567 Y199.396 E39.02538
G1 X184.166 Y199.263 E39.26311
G1 X180.793 Y198.78 E39.5011
G1 X177.491 Y197.952 E39.73888
G1 X174.29 Y196.79 E39.97673
G1 X171.225 Y195.304 E40.21464
G1 X168.331 Y193.512 E40.45239
G1 X165.635 Y191.431 E40.69027
G1 X163.169 Y189.086 E40.92795
G1 X160.957 Y186.498 E41.16575
G1 X159.021 Y183.695 E41.40368
G1 X157.385 Y180.709 E41.6415
G1 X156.064 Y177.572 E41.87924
G1 X155.074 Y174.314 E42.11707
G1 X154.422 Y170.972 E42.3549
G1 X154.118 Y167.582 E42.59263
G1 X154.161 Y164.181 E42.8302
G1 X154.559 Y160.793 E43.06846
G1 X155.3 Y157.473 E43.30606
G1 X156.379 Y154.244 E43.54385
G1 X157.785 Y151.143 E43.78167
G1 X159.502 Y148.202 E44.01953
G1 X161.515 Y145.453 E44.25751
M205 X10 Y10
G0 F12000 X161.965 Y145.786
M205 X8 Y8
G1 F2400 X164.208 Y143.305 E44.49112
G1 X166.698 Y141.066 E44.72501
G1 X169.405 Y139.095 E44.95889
G1 X172.298 Y137.415 E45.19256
G1 X175.349 Y136.039 E45.42633
G1 X178.528 Y134.986 E45.66023
G1 X181.797 Y134.263 E45.89408
G1 X185.123 Y133.881 E46.12791
G1 X187.074 Y133.805 E46.26429
G1 X188.772 Y133.843 E46.38291
G1 X191.818 Y134.149 E46.59674
G1 X195.087 Y134.797 E46.82951
G1 X198.286 Y135.776 E47.06317
G1 X201.368 Y137.083 E47.297
G1 X204.3 Y138.697 E47.53077
G1 X207.049 Y140.606 E47.76453
G1 X209.588 Y142.787 E47.99831
G1 X211.89 Y145.22 E48.23226
G1 X213.93 Y147.873 E48.46601
G1 X215.685 Y150.722 E48.69973
G1 X217.138 Y153.737 E48.93349
G1 X218.274 Y156.889 E49.16751
G1 X219.079 Y160.134 E49.40103
G1 X219.548 Y163.448 E49.63481
G1 X219.671 Y166.795 E49.86874
G1 X219.453 Y170.132 E50.10231
G1 X218.891 Y173.435 E50.33633
G1 X217.992 Y176.659 E50.57011
G1 X216.765 Y179.774 E50.80395
G1 X215.226 Y182.745 E51.03765
G1 X213.387 Y185.546 E51.27169
G1 X211.274 Y188.138 E51.50526
G1 X208.903 Y190.502 E51.73912
G1 X206.302 Y192.609 E51.97292
G1 X203.499 Y194.437 E52.20665
G1 X200.522 Y195.967 E52.44044
G1 X197.401 Y197.184 E52.67442
G1 X194.178 Y198.073 E52.90794
G1 X190.873 Y198.626 E53.14199
G1 X187.534 Y198.837 E53.37567
G1 X184.191 Y198.704 E53.60935
G1 X180.875 Y198.226 E53.84336
G1 X177.629 Y197.409 E54.07715
G1 X174.483 Y196.265 E54.31096
G1 X171.471 Y194.801 E54.54487
G1 X168.628 Y193.037 E54.77856
G1 X165.98 Y190.989 E55.01238
G1 X163.557 Y188.682 E55.24606
G1 X161.384 Y186.136 E55.47985
G1 X159.484 Y183.379 E55.71372
G1 X157.877 Y180.442 E55.94755
G1 X156.581 Y177.357 E56.18127
G1 X155.61 Y174.154 E56.41504
G1 X154.972 Y170.868 E56.64884
G1 X154.676 Y167.535 E56.88256
G1 X154.721 Y164.191 E57.11615
G1 X155.115 Y160.861 E57.35036
G1 X155.846 Y157.598 E57.58391
G1 X156.91 Y154.424 E57.81773
G1 X158.294 Y151.377 E58.05148
G1 X159.984 Y148.487 E58.28531
G1 X161.965 Y145.786 E58.51927
M205 X10 Y10
G0 F12000 X162.415 Y146.119
M205 X8 Y8
G1 F2400 X164.621 Y143.683 E58.74881
G1 X167.07 Y141.484 E58.9787
G1 X169.733 Y139.549 E59.20862
G1 X172.578 Y137.9 E59.4383
G1 X175.577 Y136.55 E59.66802
G1 X178.702 Y135.518 E59.89788
G1 X181.916 Y134.811 E60.12773
G1 X185.184 Y134.438 E60.35747
G1 X187.094 Y134.364 E60.49098
G1 X188.757 Y134.403 E60.60717
G1 X191.761 Y134.706 E60.81805
G1 X194.977 Y135.346 E61.04708
G1 X198.119 Y136.311 E61.27665
G1 X201.147 Y137.598 E61.50646
G1 X204.028 Y139.187 E61.73626
G1 X206.727 Y141.065 E61.96592
G1 X209.221 Y143.21 E62.19569
G1 X211.482 Y145.604 E62.42568
G1 X213.485 Y148.212 E62.65537
G1 X215.207 Y151.014 E62.88508
G1 X216.632 Y153.978 E63.11479
G1 X217.746 Y157.076 E63.34474
G1 X218.535 Y160.267 E63.57433
G1 X218.993 Y163.524 E63.80406
G1 X219.111 Y166.813 E64.03393
G1 X218.894 Y170.093 E64.26352
G1 X218.339 Y173.339 E64.49354
G1 X217.453 Y176.506 E64.72323
G1 X216.245 Y179.566 E64.95301
G1 X214.73 Y182.485 E65.18272
G1 X212.92 Y185.236 E65.41273
G1 X210.841 Y187.782 E65.64231
G1 X208.509 Y190.104 E65.87217
G1 X205.951 Y192.173 E66.10196
G1 X203.195 Y193.966 E66.33161
G1 X200.268 Y195.468 E66.5614
G1 X197.2 Y196.661 E66.79131
G1 X194.031 Y197.532 E67.02087
G1 X190.783 Y198.073 E67.25085
G1 X187.501 Y198.278 E67.48053
G1 X184.215 Y198.144 E67.71024
G1 X180.957 Y197.672 E67.94017
G1 X177.768 Y196.867 E68.1699
G1 X174.677 Y195.739 E68.39972
G1 X171.718 Y194.298 E68.6296
G1 X168.925 Y192.562 E68.8593
G1 X166.324 Y190.548 E69.08906
G1 X163.945 Y188.278 E69.31873
G1 X161.812 Y185.774 E69.54848
G1 X159.946 Y183.063 E69.77835
G1 X158.37 Y180.176 E70.00809
G1 X157.098 Y177.142 E70.23787
G1 X156.147 Y173.994 E70.46756
G1 X155.522 Y170.763 E70.69742
G1 X155.234 Y167.488 E70.92705
G1 X155.281 Y164.201 E71.15666
G1 X155.67 Y160.929 E71.3868
G1 X156.392 Y157.723 E71.61634
G1 X157.44 Y154.604 E71.84616
G1 X158.803 Y151.61 E72.07593
G1 X160.466 Y148.772 E72.30568
G1 X162.415 Y146.119 E72.53561
M205 X10 Y10
G0 F12000 X162.865 Y146.452
M205 X8 Y8
G1 F2400 X165.035 Y144.06 E72.76119
G1 X167.443 Y141.902 E72.98703
G1 X170.06 Y140.003 E73.21287
G1 X172.857 Y138.386 E73.43853
G1 X175.805 Y137.062 E73.66425
G1 X178.876 Y136.05 E73.8901
G1 X182.034 Y135.358 E74.1159
G1 X185.246 Y134.995 E74.34168
G1 X187.114 Y134.924 E74.47225
G1 X188.743 Y134.962 E74.58606
G1 X191.704 Y135.263 E74.79394
G1 X194.866 Y135.895 E75.01916
G1 X197.953 Y136.846 E75.24477
G1 X200.927 Y138.112 E75.47053
G1 X203.756 Y139.676 E75.69632
G1 X206.406 Y141.523 E75.92193
G1 X208.854 Y143.634 E76.14771
G1 X211.074 Y145.987 E76.37366
G1 X213.039 Y148.552 E76.59934
G1 X214.729 Y151.306 E76.82503
G1 X216.127 Y154.219 E77.05071
G1 X217.219 Y157.264 E77.27666
G1 X217.991 Y160.399 E77.50216
G1 X218.438 Y163.601 E77.72798
G1 X218.551 Y166.831 E77.95372
G1 X218.336 Y170.055 E78.17941
G1 X217.787 Y173.243 E78.40535
G1 X216.914 Y176.353 E78.63097
G1 X215.725 Y179.359 E78.85676
G1 X214.234 Y182.226 E79.08247
G1 X212.453 Y184.927 E79.30844
G1 X210.409 Y187.427 E79.53399
G1 X208.115 Y189.705 E79.7598
G1 X205.6 Y191.736 E79.98559
G1 X202.891 Y193.496 E80.21123
G1 X200.014 Y194.969 E80.43699
G1 X196.998 Y196.138 E80.66291
G1 X193.884 Y196.992 E80.88844
G1 X190.693 Y197.521 E81.11437
G1 X187.468 Y197.719 E81.34004
G1 X184.24 Y197.585 E81.5657
G1 X181.039 Y197.118 E81.79165
G1 X177.907 Y196.324 E82.01733
G1 X174.87 Y195.214 E82.24317
G1 X171.965 Y193.796 E82.46896
G1 X169.222 Y192.088 E82.69465
G1 X166.668 Y190.106 E82.92046
G1 X164.332 Y187.874 E83.14612
G1 X162.239 Y185.412 E83.37182
G1 X160.408 Y182.747 E83.59766
G1 X158.862 Y179.909 E83.82339
G1 X157.615 Y176.927 E84.04915
G1 X156.684 Y173.834 E84.27476
G1 X156.073 Y170.658 E84.50066
G1 X155.792 Y167.44 E84.72628
G1 X155.841 Y164.211 E84.95184
G1 X156.226 Y160.997 E85.17793
G1 X156.938 Y157.847 E85.4035
G1 X157.97 Y154.784 E85.62925
G1 X159.312 Y151.844 E85.85498
G1 X160.948 Y149.056 E86.08076
G1 X162.865 Y146.452 E86.30661
M205 X10 Y10
G0 F12000 X163.316 Y146.785
M205 X8 Y8
G1 F2400 X165.449 Y144.437 E86.52818
G1 X167.816 Y142.32 E86.74998
G1 X170.388 Y140.457 E86.9718
G1 X173.136 Y138.871 E87.19341
G1 X176.034 Y137.573 E87.41521
G1 X179.05 Y136.583 E87.63692
G1 X182.153 Y135.905 E87.85877
G1 X185.308 Y135.551 E88.08051
G1 X187.134 Y135.484 E88.20814
G1 X188.729 Y135.522 E88.31958
G1 X191.646 Y135.82 E88.52438
G1 X194.755 Y136.444 E88.74586
G1 X197.787 Y137.381 E88.96752
G1 X200.706 Y138.627 E89.1892
G1 X203.484 Y140.166 E89.41101
G1 X206.085 Y141.982 E89.63258
G1 X208.488 Y144.057 E89.85434
G1 X210.665 Y146.37 E90.0762
G1 X212.594 Y148.892 E90.29797
G1 X214.251 Y151.597 E90.51953
G1 X215.621 Y154.46 E90.74122
G1 X216.691 Y157.452 E90.96316
G1 X217.447 Y160.532 E91.18467
G1 X217.883 Y163.677 E91.40644
G1 X217.992 Y166.85 E91.62819
G1 X217.777 Y170.016 E91.84983
G1 X217.236 Y173.146 E92.07169
G1 X216.375 Y176.201 E92.29339
G1 X215.204 Y179.152 E92.51514
G1 X213.737 Y181.966 E92.73679
G1 X211.986 Y184.618 E92.95876
G1 X209.976 Y187.071 E93.18026
G1 X207.722 Y189.307 E93.40202
G1 X205.249 Y191.3 E93.62386
G1 X202.587 Y193.026 E93.84545
G1 X199.76 Y194.47 E94.06718
G1 X196.797 Y195.616 E94.28907
G1 X193.737 Y196.452 E94.51063
G1 X190.602 Y196.968 E94.73255
G1 X187.435 Y197.16 E94.95416
G1 X184.264 Y197.025 E95.17584
G1 X181.121 Y196.564 E95.39772
G1 X178.046 Y195.782 E95.61933
G1 X175.064 Y194.688 E95.84119
G1 X172.212 Y193.293 E96.06294
G1 X169.519 Y191.613 E96.28464
G1 X167.013 Y189.664 E96.50638
G1 X164.72 Y187.47 E96.72804
G1 X162.667 Y185.051 E96.94964
G1 X160.871 Y182.431 E97.17151
G1 X159.354 Y179.642 E97.39326
G1 X158.132 Y176.712 E97.615
G1 X157.22 Y173.673 E97.83661
G1 X156.623 Y170.554 E98.05842
G1 X156.35 Y167.393 E98.28002
G1 X156.401 Y164.22 E98.50167
G1 X156.782 Y161.065 E98.72364
G1 X157.484 Y157.972 E98.94517
G1 X158.501 Y154.964 E99.16695
G1 X159.821 Y152.078 E99.38861
G1 X161.431 Y149.341 E99.6104
G1 X163.316 Y146.785 E99.83223
M205 X10 Y10
G0 F12000 X163.766 Y147.118
M205 X8 Y8
G1 F2400 X165.863 Y144.814 E100.04983
G1 X168.189 Y142.738 E100.26759
G1 X170.716 Y140.911 E100.48539
G1 X173.415 Y139.356 E100.70295
G1 X176.262 Y138.084 E100.92075
G1 X179.224 Y137.115 E101.13842
G1 X182.272 Y136.452 E101.35629
G1 X185.369 Y136.108 E101.57394
G1 X187.154 Y136.043 E101.69869
G1 X188.715 Y136.082 E101.80776
G1 X191.589 Y136.377 E102.00955
G1 X194.644 Y136.993 E102.22723
G1 X197.621 Y137.916 E102.44492
G1 X200.485 Y139.142 E102.66252
G1 X203.212 Y140.655 E102.88034
G1 X205.764 Y142.441 E103.09791
G1 X208.121 Y144.48 E103.31559
G1 X210.257 Y146.753 E103.53345
G1 X212.149 Y149.231 E103.75121
G1 X213.773 Y151.889 E103.96877
G1 X215.116 Y154.701 E104.18643
G1 X216.164 Y157.64 E104.40437
G1 X216.903 Y160.665 E104.62186
G1 X217.328 Y163.753 E104.83958
G1 X217.432 Y166.868 E105.05727
G1 X217.218 Y169.977 E105.27494
G1 X216.684 Y173.05 E105.4928
G1 X215.836 Y176.048 E105.71041
G1 X214.684 Y178.945 E105.92817
G1 X213.241 Y181.707 E106.14582
G1 X211.519 Y184.309 E106.36376
G1 X209.543 Y186.716 E106.58127
G1 X207.328 Y188.909 E106.79898
G1 X204.898 Y190.863 E107.01677
G1 X202.283 Y192.555 E107.23432
G1 X199.506 Y193.971 E107.45204
G1 X196.596 Y195.093 E107.66988
G1 X193.59 Y195.911 E107.88747
G1 X190.512 Y196.415 E108.10532
G1 X187.402 Y196.601 E108.32293
G1 X184.289 Y196.466 E108.54057
G1 X181.203 Y196.01 E108.75846
G1 X178.185 Y195.239 E108.97602
